X:1
T: Schottis efter Axel Sjölander
C:Axel Sjölander
O:Yttre Källehult, Grönadal, Småland
R:Schottis
M:2/4
L:1/8
Z:Andy Davey 2018
K:D
A | f2 fA | d2 dA | B2 BG | E4 | EF GA | BA Bc |[1 dc de | f3  :|[2 d2 d2 | d2 A2 | 
|: AG FE | D2 B2 | BA GF | E4 | e2 ec | A2 Ac |[1 .e2 .[eA]2 | .[eA]2 A2 :|d2 d2 |  d2 z|

